Numix-Light-GalliumOS/22/status/gpm-mouse-080.svg

<?xml version="1.0" encoding="UTF-8" standalone="no"?>
<svg
   xmlns:dc="http://purl.org/dc/elements/1.1/"
   xmlns:cc="http://creativecommons.org/ns#"
   xmlns:rdf="http://www.w3.org/1999/02/22-rdf-syntax-ns#"
   xmlns:svg="http://www.w3.org/2000/svg"
   xmlns="http://www.w3.org/2000/svg"
   xmlns:sodipodi="http://sodipodi.sourceforge.net/DTD/sodipodi-0.dtd"
   xmlns:inkscape="http://www.inkscape.org/namespaces/inkscape"
   width="22"
   height="22"
   viewBox="0 0 22 22"
   id="svg2"
   version="1.1"
   inkscape:version="0.91 r"
   sodipodi:docname="xfpm-mouse-080.svg">
  <metadata
     id="metadata32">
    <rdf:RDF>
      <cc:Work
         rdf:about="">
        <dc:format>image/svg+xml</dc:format>
        <dc:type
           rdf:resource="http://purl.org/dc/dcmitype/StillImage" />
        <dc:title />
      </cc:Work>
    </rdf:RDF>
  </metadata>
  <sodipodi:namedview
     pagecolor="#ffffff"
     bordercolor="#666666"
     borderopacity="1"
     objecttolerance="10"
     gridtolerance="10"
     guidetolerance="10"
     inkscape:pageopacity="0"
     inkscape:pageshadow="2"
     inkscape:window-width="1366"
     inkscape:window-height="747"
     id="namedview30"
     showgrid="false"
     showguides="true"
     inkscape:guide-bbox="true"
     inkscape:zoom="7.375"
     inkscape:cx="-10.348807"
     inkscape:cy="6.8193996"
     inkscape:window-x="0"
     inkscape:window-y="21"
     inkscape:window-maximized="1"
     inkscape:current-layer="svg2" />
  <defs
     id="defs4" />
  <g
     id="g4211">
    <path
       sodipodi:nodetypes="ssssssssssssssssssssss"
       inkscape:connector-curvature="0"
       id="path28-3"
       d="m 10.001953,2.9999999 c -1.21099,0 -2.311294,0.350435 -3.132812,0.955078 C 6.047622,4.5597219 5.5,5.4449769 5.5,6.4472659 l 0,9.0605461 c 0,1.002289 0.544767,1.895696 1.365234,2.511719 C 7.685702,18.635555 8.787936,19 10.001953,19 l 1.996094,0 c 1.214018,0 2.316251,-0.364445 3.136719,-0.980469 C 15.955233,17.403508 16.5,16.510101 16.5,15.507812 l 0,-9.0605461 c 0,-1.002289 -0.547622,-1.887544 -1.369141,-2.492188 -0.821518,-0.604643 -1.921822,-0.955078 -3.132812,-0.955078 z m 0.738281,1.761719 0.519532,0 c 0.376385,0 0.65625,0.258517 0.65625,0.607422 l 0,3.3222654 c 0,0.3489044 -0.301908,0.6503907 -0.65625,0.6503907 l -0.519532,0 c -0.354337,0 -0.65625,-0.3014878 -0.65625,-0.6503907 l 0,-3.3222654 c 0,-0.348903 0.279871,-0.607422 0.65625,-0.607422 z"
       style="color:#000000;font-style:normal;font-variant:normal;font-weight:normal;font-stretch:normal;font-size:medium;line-height:normal;font-family:sans-serif;text-indent:0;text-align:start;text-decoration:none;text-decoration-line:none;text-decoration-style:solid;text-decoration-color:#000000;letter-spacing:normal;word-spacing:normal;text-transform:none;direction:ltr;block-progression:tb;writing-mode:lr-tb;baseline-shift:baseline;text-anchor:start;white-space:normal;clip-rule:nonzero;display:inline;overflow:visible;visibility:visible;opacity:0.4;isolation:auto;mix-blend-mode:normal;color-interpolation:sRGB;color-interpolation-filters:linearRGB;solid-color:#000000;solid-opacity:1;fill:#353535;fill-opacity:1;fill-rule:nonzero;stroke:none;stroke-width:0.94235951;stroke-linecap:round;stroke-linejoin:miter;stroke-miterlimit:4;stroke-dasharray:none;stroke-dashoffset:0;stroke-opacity:1;color-rendering:auto;image-rendering:auto;shape-rendering:auto;text-rendering:auto;enable-background:accumulate" />
  </g>
  <path
     style="color:#000000;font-style:normal;font-variant:normal;font-weight:normal;font-stretch:normal;font-size:medium;line-height:normal;font-family:sans-serif;text-indent:0;text-align:start;text-decoration:none;text-decoration-line:none;text-decoration-style:solid;text-decoration-color:#000000;letter-spacing:normal;word-spacing:normal;text-transform:none;direction:ltr;block-progression:tb;writing-mode:lr-tb;baseline-shift:baseline;text-anchor:start;white-space:normal;clip-rule:nonzero;display:inline;overflow:visible;visibility:visible;opacity:1;isolation:auto;mix-blend-mode:normal;color-interpolation:sRGB;color-interpolation-filters:linearRGB;solid-color:#000000;solid-opacity:1;fill:#353535;fill-opacity:1;fill-rule:nonzero;stroke:none;stroke-width:0.94235951;stroke-linecap:round;stroke-linejoin:miter;stroke-miterlimit:4;stroke-dasharray:none;stroke-dashoffset:0;stroke-opacity:1;color-rendering:auto;image-rendering:auto;shape-rendering:auto;text-rendering:auto;enable-background:accumulate"
     d="M 5.5175781 6.1992188 C 5.5100111 6.2816689 5.5 6.3630666 5.5 6.4472656 L 5.5 15.507812 C 5.5 16.510101 6.0447674 17.403508 6.8652344 18.019531 C 7.6857024 18.635555 8.7879351 19 10.001953 19 L 11.998047 19 C 13.212065 19 14.314298 18.635555 15.134766 18.019531 C 15.955233 17.403508 16.5 16.510101 16.5 15.507812 L 16.5 6.4472656 C 16.5 6.3630666 16.489989 6.2816689 16.482422 6.1992188 L 11.916016 6.1992188 L 11.916016 8.6914062 C 11.916016 9.0403113 11.614108 9.3417969 11.259766 9.3417969 L 10.740234 9.3417969 C 10.385897 9.3417969 10.083984 9.0403093 10.083984 8.6914062 L 10.083984 6.1992188 L 5.5175781 6.1992188 z "
     id="path28" />
</svg>

<svg xmlns="http://www.w3.org/2000/svg" viewBox="0 0 22 22">
 <g>
  <path d="m 10 3 c -1.211 0 -2.311 0.35 -3.133 0.955 c -0.822 0.605 -1.369 1.49 -1.369 2.492 l 0 9.06 c 0 1 0.545 1.896 1.365 2.512 c 0.82 0.616 1.923 0.98 3.137 0.98 l 1.996 0 c 1.214 0 2.316 -0.364 3.137 -0.98 c 0.82 -0.616 1.365 -1.509 1.365 -2.512 l 0 -9.06 c 0 -1 -0.548 -1.888 -1.369 -2.492 -0.822 -0.605 -1.922 -0.955 -3.133 -0.955 z m 0.738 1.762 0.52 0 c 0.376 0 0.656 0.259 0.656 0.607 l 0 3.322 c 0 0.349 -0.302 0.65 -0.656 0.65 l -0.52 0 c -0.354 0 -0.656 -0.301 -0.656 -0.65 l 0 -3.322 c 0 -0.349 0.28 -0.607 0.656 -0.607 z" mix-blend-mode="normal" isolation="auto" white-space="normal" solid-opacity="1" solid-color="#000000" style="visibility:visible;shape-rendering:auto;color-interpolation-filters:linearRGB;fill:#353535;opacity:0.4;image-rendering:auto;fill-opacity:1;stroke:none;display:inline;color:#000;fill-rule:nonzero;color-rendering:auto;color-interpolation:sRGB"/>
 </g>
 <path d="m 5.518 6.199 c -0.008 0.082 -0.018 0.164 -0.018 0.248 l 0 9.06 c 0 1 0.545 1.896 1.365 2.512 c 0.82 0.616 1.923 0.98 3.137 0.98 l 1.996 0 c 1.214 0 2.316 -0.364 3.137 -0.98 c 0.82 -0.616 1.365 -1.509 1.365 -2.512 l 0 -9.06 c 0 -0.084 -0.01 -0.166 -0.018 -0.248 l -4.566 0 l 0 2.492 c 0 0.349 -0.302 0.65 -0.656 0.65 l -0.52 0 c -0.354 0 -0.656 -0.301 -0.656 -0.65 l 0 -2.492 l -4.566 0 z" mix-blend-mode="normal" isolation="auto" white-space="normal" solid-opacity="1" solid-color="#000000" style="visibility:visible;shape-rendering:auto;color-interpolation-filters:linearRGB;fill:#353535;opacity:1;image-rendering:auto;fill-opacity:1;stroke:none;display:inline;color:#000;fill-rule:nonzero;color-rendering:auto;color-interpolation:sRGB"/>
</svg>
